!!!!SEGMENT: pl-sa--6-a-i-6--001_anonim--mazur.krn
!!!OTL: Title
!!!cenid: 18xx:364
!!!COM: Anonim
!!!COM-rismID: pe30004985
!!!CDT:
!!!CNT:
!!!OTL: Mazur
!!!PDT:
!!!AGN: Secular; Mazurka
!!!SMS-siglum: PL-SA
!!!SMS-shelfmark: 6/A I 6
!!!SMS-shelfwork: 001 W
!!!SMS-variant:
!!!SMS-altvar:
!!!NIFC-rismSourceID: 1001065401
!!!NIFC-rismChildID: 1001065401
!!!NIFC-islandoraID:
!!!URL-pdf-islandora:
!!!URL-scan: https://bc.bdsandomierz.pl/dlibra/publication/1233/edition/1194/content @EN{Scan in the Sandomierz Diocese Digital Library} @PL{Skany w portalu Cyfrowa Biblioteka Diecezjalna w Sandomierzu}
!!!ONB-nifc: Str. 1, s. 1
!!!AIN: 2 empty
!!!key:
**kern	**kern
*part2	*part1
*staff2	*staff1
*Iempty	*Iempty
*I"	*I"
*clefF4	*clefG2
*k[]	*k[]
*C:	*C:
*M3/8	*M3/8
=1	=1
!	!LO:TX:a:B:t=Mazur
8C\L	16g\LL
.	16cc\J
8c\ 8G\ 8E\	8cc\
8c\J 8G\ 8E\	8cc\J
=2	=2
!	!LO:TUP:a
8GG/	(24cc\LL
.	24b\
.	24cc\JJ
8G\L 8D\ 8BB\	8.dd\L)
8G\J 8D\ 8BB\	.
.	16b\Jk
=3	=3
8C\L	16cc\LL
.	16ee\J
8c\ 8G\ 8E\	8ee\
8c\J 8G\ 8E\	8ee\J
=4	=4
!	!LO:TUP:a
8GG/	(24ff\LL
.	24ee\
.	24ff\JJ
8G\L 8D\ 8BB\	8.gg\L)
8G\J 8D\ 8BB\	.
.	16ee\Jk
=5	=5
!	!LO:TUP:a
8C\L	(24ee\LL
.	24ff\
.	24ee\JJ
!	!LO:SIC:o:s:=:v:wysokość nieczytelna, nad nutą litera c
8c\ 8G\ 8E\	8cc\)
!	!LO:TUP:a
8c\J 8G\ 8E\	(24cc\LL
.	24b\
.	24a\JJ)
=6	=6
!	!LO:SIC:o:s:=:v:na kresce taktowej znaki X sugerujące wstawienie tu pominiętego taktu
8GG/L	16g/LL
.	16g/J
!LO:TX:t=P:problem=mixed beam	!
8G\ 8D\ 8BB\	8a/
8G\J 8D\ 8BB\	8f#X/J
=7	=7
.	8qf#X/
!	!LO:TUP:a
8GG/L	(24g\LL
.	24a\
.	24dd\JJ
!LO:TX:t=P:problem=mixed beam	!
8G\ 8D\ 8BB\	8ff\L)
8G\J 8D\ 8BB\	16ee\L
.	16dd\JJ
=8	=8
.	8qdd/
8C\L	16cc\LL
.	16b\
8c\ 8G\ 8E\	16cc\
.	16dd\
8c\J 8G\ 8E\	16ee\
.	16cc\JJ
=9	=9
*rep	*
!	!LO:TUP:a
8C\L	(24ee\LL
.	24ff\
.	24ee\JJ)
8c\ 8G\ 8E\	8cc\
!	!LO:TUP:a
8c\J 8G\ 8E\	(24cLc\LL
.	24b\
.	24a\JJ)
*Xrep	*
=10	=10
!	!LO:SIC:o:s:=:v:przed nutą, na kresce taktowej znaki X sugerujące, że ten takt ma być wstawiony w oznaczone wcześniej X-ami miejsce
!	!LO:SIC:o:s:=:v:po t. 9 cztery szesnastki g-g-a-fis, skreślone
8GG/L	16g/LL
.	16g/J
!LO:TX:t=P:problem=mixed beam	!
8G\ 8D\ 8BB\	8a/
8G\J 8D\ 8BB\	8f#X/J
=11	=11
*rep	*
.	8qf#X/
!	!LO:TUP:b
8GG/L	(24g/LL
.	24b/
.	24dd/JJ)
!LO:TX:t=P:problem=mixed beam	!
8G\ 8D\ 8BB\	8ff\L
8G\J 8D\ 8BB\	16ee\L
.	16dd\JJ
*Xrep	*
=12	=12
8c\L	16dd\LL
.	16cc\JJ
!LO:TX:t=P:problem=mixed beam	!
8C/J	4cc\
8r	.
==	==
*-	*-
!!!system-decoration: [s1,s2]
!!!EED: Leszek Kubiak
!!!EEV: 2020-12-16
!!!ENC: Mateusz Solarz
!!!END: 2020-06-15
!!!YEC: Copyright 2022 Narodowy Instytut Fryderyka Chopina (https://polishscores.org)
!!!YEM: License CC-BY-4.0 (https://creativecommons.org/licenses/by/4.0)
